X:1
T:The Wonderful Story Is True
T:The Wonderful Story Is True
T:Owen Foulkes Pugh
T:Esther Chapman, 1906
T:Public Domain Courtesy of the Cyber Hymnal™
T:Public Domain Courtesy of the Cyber Hymnal™
C:Owen Foulkes Pugh
Z:Public Domain
Z:Courtesy of the Cyber Hymnal™
%%score ( 1 2 ) ( 3 4 )
L:1/8
Q:1/4=105
M:6/8
K:A
V:1 treble 
V:2 treble 
V:3 bass 
V:4 bass 
V:1
 [CE] | [Ec]3 [Ec]2 [DB] | [CA]3 [CE]2 [CE] | [DF]3 [FA]2 [DF] | [CE]3- [CE]2 [CE] | %5
w: 1.~They|tell me a|sto- ry Of|won- der- ful|love, * How|
w: 2.~They|tell me a|sto- ry Of|won- der- ful|light; * He|
w: 3.~They|tell me a|sto- ry Of|won- der- ful|grace; * How|
 [CA]3 [CA]2 [EG] | [EA]3 [EB]2 [Ec] | [^DB]3 [DF]2 [Dc] | [DB]3- [DB]2 [CE] | [Ec]3 [Ec]2 [DB] | %10
w: One came to|earth from His|man- sion a-|bove, * And|poured out His|
w: rose from the|grave in The|power of His|might, * That|one day in|
w: I, tho’ a|sin- ner, May|see His dear|face; * Since|once in His|
 [CA]3 [CE]2 [CE] | [DF]3 [FA]2 [FB] | [^Ec]3- [Ec]2 [=Ec] | [Ed]3 [Ec]2 [EB] | [Ec]3 [CA]2 [Ec] | %15
w: life- blood Up-|on Cal- va-|ry; * ’Twas|Je- sus, my|Sav- ior, That|
w: glo- ry With|Him I might|be; * O|Je- sus, my|Sav- ior, That|
w: mer- cy He|died to save|me; * O|Je- sus, my|Sav- ior, I’ll|
 [DB]3 [CA]2 [B,G] | [CA]3- [CA]2 ||"^Refrain" [CE] | [CE][A,C][CA] [EG]2 E | %19
w: suf- fered for|me. *|||
w: vic- tory for|me! *|The|sto- ry is true, I|
w: now live for|Thee! *|||
 E[EG][EB] [EA]2 [EA] |!>(! [^DF]>!>)![DF][DF] [DF][DG][DA] | [DB]3- !fermata![DB]2 [DE]/[DE]/ | %22
w: |||
w: know it is true, That|won- der- ful sto- ry is|true; * It is|
w: |||
 [CE][EA][EB] [Ec]2 [EA]/[EA]/ | [EA][EB][=Gc] !fermata![Fd]2 [FB] | %24
w: ||
w: writ- ten on high, And His|word can- not die, That|
w: ||
!>(! [EA]>!>)![EA][EA] [EG][EA][EB] | [EA]3- [EA]2 |] %26
w: ||
w: won- der- ful sto- ry is|true. *|
w: ||
V:2
 x | x6 | x6 | x6 | x6 | x6 | x6 | x6 | x6 | x6 | x6 | x6 | x6 | x6 | x6 | x6 | x5 || x | x5 E | %19
 E x5 | x6 | x6 | x6 | x6 | x6 | x5 |] %26
V:3
 [A,,A,] | [A,,A,]3 [A,,A,]2 [A,,A,] | [A,,E,]3 [A,,A,]2 [A,,A,] | [D,A,]3 [D,A,]2 [D,A,] | %4
w: ||||
 [A,,A,]3- [A,,A,]2 [A,,A,] | [A,,E,]3 [A,,E,]2 [B,,E,] | [C,A,]3 [B,,G,]2 [A,,A,] | %7
w: |||
 [B,,A,]3 [B,,A,]2 [B,,A,] | [E,G,]3- [E,G,]2 A, | [A,,A,]3 [A,,A,]2 [A,,A,] | %10
w: |* * That||
 [A,,E,]3 [A,,A,]2 [A,,A,] | [D,A,]3 [D,A,]2 [D,F,] | [C,G,]3- [C,G,]2 [C,A,] | %13
w: |||
 [B,,G,]3 [E,A,]2 [E,G,] | [A,,A,]3 [A,,E,]2 [A,,A,] | [E,G,]3 [E,A,]2 E, | [A,,E,]3- [A,,E,]2 || %17
w: ||* * won-||
 [A,,A,] | [A,,A,][A,,E,][A,,A,] [E,B,]2 [E,G,] | [E,G,][E,B,][E,D] [A,C]2 [A,C] | %20
w: ||* * * * der-|
 B,3 [B,,B,]2 [B,,A,] | [E,G,][E,G,][E,G,] !fermata![E,G,]2 [E,G,]/[E,G,]/ | %22
w: ful sto- ry|is true; * * * *|
 [A,,A,][C,A,][E,G,] A,2 [A,C]/[A,C]/ | [A,C][G,B,]A, !fermata![D,A,]2 [D,D] | %24
w: ||
 [E,C]>[E,C][E,C] [E,B,][E,C][E,D] | [A,,A,C]3- [A,,A,C]2 |] %26
w: ||
V:4
 x | x6 | x6 | x6 | x6 | x6 | x6 | x6 | x5 A, | x6 | x6 | x6 | x6 | x6 | x6 | x5 E, | x5 || x | %18
 x6 | x6 | B,3 x3 | x6 | x3 A,2 x | x2 A, x3 | x6 | x5 |] %26

